resources/svg/solid/headphones-simple.svg

<svg fill="currentColor" xmlns="http://www.w3.org/2000/svg" viewBox="0 0 512 512"><!--! Font Awesome Free 6.6.0 by @fontawesome - https://fontawesome.com License - https://fontawesome.com/license/free (Icons: CC BY 4.0, Fonts: SIL OFL 1.1, Code: MIT License) Copyright 2024 Fonticons, Inc. --><path d="M256 80C141.1 80 48 173.1 48 288l0 104c0 13.3-10.7 24-24 24s-24-10.7-24-24L0 288C0 146.6 114.6 32 256 32s256 114.6 256 256l0 104c0 13.3-10.7 24-24 24s-24-10.7-24-24l0-104c0-114.9-93.1-208-208-208zM80 352c0-35.3 28.7-64 64-64l16 0c17.7 0 32 14.3 32 32l0 128c0 17.7-14.3 32-32 32l-16 0c-35.3 0-64-28.7-64-64l0-64zm288-64c35.3 0 64 28.7 64 64l0 64c0 35.3-28.7 64-64 64l-16 0c-17.7 0-32-14.3-32-32l0-128c0-17.7 14.3-32 32-32l16 0z"/></svg>

<svg fill="currentColor" xmlns="http://www.w3.org/2000/svg" viewBox="0 0 512 512"><!--! Font Awesome Free 6.5.2 by @fontawesome - https://fontawesome.com License - https://fontawesome.com/license/free (Icons: CC BY 4.0, Fonts: SIL OFL 1.1, Code: MIT License) Copyright 2024 Fonticons, Inc. --><path d="M256 80C141.1 80 48 173.1 48 288V392c0 13.3-10.7 24-24 24s-24-10.7-24-24V288C0 146.6 114.6 32 256 32s256 114.6 256 256V392c0 13.3-10.7 24-24 24s-24-10.7-24-24V288c0-114.9-93.1-208-208-208zM80 352c0-35.3 28.7-64 64-64h16c17.7 0 32 14.3 32 32V448c0 17.7-14.3 32-32 32H144c-35.3 0-64-28.7-64-64V352zm288-64c35.3 0 64 28.7 64 64v64c0 35.3-28.7 64-64 64H352c-17.7 0-32-14.3-32-32V320c0-17.7 14.3-32 32-32h16z"/></svg>
